X: 21101
M: 6/8
L: 1/8
K: Bb
V: 1 name="1"
c |\
cdc c2f | =e2g fef | g2=e cdB | Adc cAd |\
c2f =e2g | fag f=ed | dcA cBA | F>GA A>B"^D.C."c |]
d/B/ |\


